X:1
T:Title
%%score 1 ( 2 3 ) 4
L:1/8
Q:1/4=105
M:4/4
K:Bb
V:1 treble nm="Grand Piano, Staff 1"
V:2 treble nm="Choir Pad, Staff-1"
V:3 treble 
V:4 bass nm="Choir Pad, Only an Armor Bearer"
V:1
 F2 F>F GFDF | B2 B>c B4 | A2 G>G G^FGG | c2 B2 A4 | F2 F>F GFDF | B2 c2 d4 | eeee d2 c2 | %7
w: By~Philip~Paul~Bliss~(1838\-1876) * * * * * *|||||||
 BAGA B4 | [Fc]2 [Fc]>[Fc] [Fc][Fc] [Fc]2 | [Bd]2 [Bd]>[Bd] [Fc]4 | %10
w: |||
 [FA]2 [FA]>[FG] [FA]2 [GB][Ac] | [GB]2 [FA]>[=EG] F4 | [DF]2 [Fd]>[Fd] [Ec][DB][FA][EG] | %13
w: |||
 [DF]2 [B,D]2 [DF]4 | [EG]2 [EG]>[EG] [Ec][EB][EA][EG] | [DF]2 [Fc]2 [Fc]4 | %16
w: |||
 [Fd]2 [Fd]>[Fd] [Ec][DB][FA][EG] | [DF]2 [B,D]2 [DF]4 | [EG]2 [EG]>[EG] [Ec][EB][EA][EG] | %19
w: |||
 [DF]2 [EA]2 [DB]4- | [DB]4 z4 |] %21
w: ||
V:2
 z2 [B,DF]2 z2 [B,DF]2 | z2 [B,DF]2 z2 [B,DF]2 | z2 [B,EG]2 z2 [B,EG]2 | %3
 z2 [C=EG]2 [CF]-[C-DF-][B,C-F-][A,CF] | z2 [B,DF]2 z2 [B,DF]2 | z2 [B,DF]2 z2 [B,DF]2 | %6
 [A,E]4 [B,D]2 [B,C]2 | [B,D]2[K:bass] [A,E]2 [B,D]4 | F,2 F,>F, F,F, [F,A,]2 | B,2 B,>B, [F,A,]4 | %10
 [F,C]2 [F,C]>[F,C] [F,C]2 [F,C][F,C] | z4 [F,A,]4 | %12
 [B,,B,]2 [B,,B,]>[B,,B,] [B,,B,][B,,B,][B,,B,][B,,B,] | [B,,B,]2 [B,,F,]2 [B,,B,]4 | %14
 [E,B,]2 [E,B,]>[E,B,] [E,B,][E,B,][E,B,][E,B,] | [F,B,]2 [F,A,]2 [F,A,]4 | %16
 [B,,B,]2 [B,,B,]>[B,,B,] [B,,B,][B,,B,][B,,B,][B,,B,] | [B,,B,]2 [B,,F,]2 [B,,B,]4 | %18
 [E,B,]2 [E,B,]>[E,B,] [E,B,][E,B,][E,B,][E,B,] | [F,B,]2 [F,C]2 [B,,B,]4- | [B,,B,]4 z4 |] %21
V:3
 x8 | x8 | x8 | z4 A,4 | x8 | x8 | x8 | x2[K:bass] x6 | x8 | x8 | x8 | %11
 [C,C]2 [C,C]>[C,C] z E,D,C, | x8 | x8 | x8 | x8 | x8 | x8 | x8 | x8 | x8 |] %21
V:4
 B,,2 z2 B,,2 z2 | B,,2 z2 B,,2 z2 | E,2 z2 E,2 z2 | C,2 z2 [F,,F,]4 | B,,2 z2 B,,2 z2 | %5
 B,,2 z2 B,,2 z2 | C,4 D,2 E,2 | [F,,F,]4 [B,,F,]4 | z8 | z8 | z8 | z8 | z8 | z8 | z8 | z8 | z8 | %17
 z8 | z8 | z8 | z8 |] %21

